src/assets/duotone/Paperclip2.svg

<svg width="24" height="24" viewBox="0 0 24 24"  xmlns="http://www.w3.org/2000/svg">
<path opacity="0.4" d="M16.19 2H7.81C4.17 2 2 4.17 2 7.81V16.18C2 19.83 4.17 22 7.81 22H16.18C19.82 22 21.99 19.83 21.99 16.19V7.81C22 4.17 19.83 2 16.19 2Z" />
<path d="M12.1998 17.66C11.4998 17.66 10.7898 17.39 10.2598 16.86C9.18982 15.79 9.18982 14.04 10.2598 12.97L11.6698 11.56C11.9598 11.27 12.4398 11.27 12.7298 11.56C13.0198 11.85 13.0198 12.33 12.7298 12.62L11.3198 14.03C10.8298 14.52 10.8298 15.31 11.3198 15.8C11.8098 16.29 12.5998 16.29 13.0898 15.8L15.3098 13.58C15.9198 12.97 16.2598 12.15 16.2598 11.28C16.2598 10.41 15.9198 9.60003 15.3098 8.98003C14.0798 7.75003 11.9398 7.75003 10.7098 8.98003L8.28982 11.4C7.24982 12.44 7.24982 14.14 8.28982 15.19C8.57982 15.48 8.57982 15.96 8.28982 16.25C7.99982 16.54 7.51982 16.54 7.22982 16.25C5.59982 14.62 5.59982 11.97 7.22982 10.34L9.64982 7.92003C10.5498 7.02003 11.7398 6.53003 13.0098 6.53003C14.2798 6.53003 15.4698 7.02003 16.3698 7.92003C17.2698 8.82003 17.7598 10.01 17.7598 11.28C17.7598 12.55 17.2698 13.74 16.3698 14.64L14.1498 16.86C13.6098 17.39 12.9098 17.66 12.1998 17.66Z" />
</svg>

<?xml version="1.0" encoding="UTF-8"?>
<svg width="24" height="24" viewBox="0 0 24 24" xmlns="http://www.w3.org/2000/svg">
 <path d="M16.19 2H7.81C4.17 2 2 4.17 2 7.81V16.18C2 19.83 4.17 22 7.81 22H16.18C19.82 22 21.99 19.83 21.99 16.19V7.81C22 4.17 19.83 2 16.19 2Z" opacity=".4"/>
 <path d="m12.2 17.66c-0.7 0-1.41-0.27-1.94-0.8-1.07-1.07-1.07-2.82 0-3.89l1.41-1.41c0.29-0.29 0.77-0.29 1.06 0s0.29 0.77 0 1.06l-1.41 1.41c-0.49 0.49-0.49 1.28 0 1.77s1.28 0.49 1.77 0l2.22-2.22c0.61-0.61 0.95-1.43 0.95-2.3s-0.34-1.68-0.95-2.3c-1.23-1.23-3.37-1.23-4.6 0l-2.42 2.42c-1.04 1.04-1.04 2.74 0 3.79 0.29 0.29 0.29 0.77 0 1.06s-0.77 0.29-1.06 0c-1.63-1.63-1.63-4.28 0-5.91l2.42-2.42c0.89998-0.9 2.09-1.39 3.36-1.39s2.46 0.49 3.36 1.39 1.39 2.09 1.39 3.36-0.49 2.46-1.39 3.36l-2.22 2.22c-0.54 0.53-1.24 0.8-1.95 0.8z"/>
</svg>
